usr/share/icons/biglinux-icons-material/scalable/apps/flatseal.svg

<svg xmlns="http://www.w3.org/2000/svg" xmlns:xlink="http://www.w3.org/1999/xlink" width="24" height="24" fill="none"><defs><radialGradient id="a" cx="0" cy="0" r="1" gradientTransform="matrix(0 22 -22 0 12 1)" gradientUnits="userSpaceOnUse"><stop offset="0" stop-color="#8FC8FF" style="stop-color:#f0f0f0;stop-opacity:1"/><stop offset="1" stop-color="#0056A8" style="stop-color:#e5e5e5;stop-opacity:1"/></radialGradient><radialGradient id="b" cx="0" cy="0" r="1" gradientTransform="matrix(0 22 -22 0 12 1)" gradientUnits="userSpaceOnUse"><stop offset="0" stop-color="#8FC8FF" style="stop-color:#f6f6f6;stop-opacity:1"/><stop offset="1" stop-color="#0056A8" style="stop-color:#cfcfcf;stop-opacity:1"/></radialGradient><radialGradient xlink:href="#a" id="c" cx=".179" cy="-1.748" r="1" fx=".179" fy="-1.748" gradientTransform="matrix(0 90.05947 -90.00681 0 -107.37 -11.19)" gradientUnits="userSpaceOnUse"/></defs><path d="M50 5C9.09 5 5 25.455 5 50c0 32.727 12.273 45 45 45 32.727 0 45-12.273 45-45 0-24.545-4.09-45-45-45Z" style="font-variation-settings:normal;display:inline;opacity:1;vector-effect:none;fill:url(#c);fill-opacity:1;stroke-width:4.56656;stroke-linecap:butt;stroke-linejoin:miter;stroke-miterlimit:4;stroke-dasharray:none;stroke-dashoffset:0;stroke-opacity:1;-inkscape-stroke:none;stop-color:#000;stop-opacity:1" transform="matrix(.24444 0 0 .24444 -.222 -.222)"/><g style="display:inline"><rect width="2" height="2" x="12" y="-3" rx="0" ry="0" style="display:inline;fill:#3947be;fill-opacity:1;stroke-width:22.6872;paint-order:markers stroke fill"/><rect width="2" height="2" x="9" y="-3" rx="0" ry="0" style="display:inline;fill:#6c7ad8;fill-opacity:1;stroke-width:22.6873;paint-order:markers stroke fill"/><rect width="2" height="2" x="6" y="-3" rx="0" ry="0" style="display:inline;fill:#3c3;fill-opacity:1;stroke-width:22.6873;paint-order:markers stroke fill"/><rect width="2" height="2" x="3" y="-3" rx="0" ry="0" style="display:inline;fill:#ffc328;fill-opacity:1;stroke-width:22.6872;paint-order:markers stroke fill"/><rect width="2" height="2" y="-3" rx="0" ry="0" style="display:inline;fill:#cc5e55;fill-opacity:1;stroke-width:22.6873;paint-order:markers stroke fill"/><rect width="2" height="2" x="-3" y="12" rx="0" ry="0" style="display:inline;fill:#0bb1cb;fill-opacity:1;stroke-width:22.6872;paint-order:markers stroke fill"/><rect width="2" height="2" x="-3" y="9" rx="0" ry="0" style="display:inline;fill:#2a92c9;fill-opacity:1;stroke-width:22.6873;paint-order:markers stroke fill"/><rect width="2" height="2" x="-3" y="6" rx="0" ry="0" style="display:inline;fill:#069;fill-opacity:1;stroke-width:22.6873;paint-order:markers stroke fill"/><rect width="2" height="2" x="-3" y="3" rx="0" ry="0" style="display:inline;fill:#002a44;fill-opacity:1;stroke-width:22.6873;paint-order:markers stroke fill"/><rect width="2" height="2" x="-3" rx="0" ry="0" style="display:inline;fill:#2c2d3d;fill-opacity:1;stroke-width:22.6873;paint-order:markers stroke fill"/><rect width="2" height="2" x="-3" y="-3" rx="0" ry="0" style="display:inline;fill:#16171c;fill-opacity:1;stroke-width:22.6872;paint-order:markers stroke fill"/></g><path fill="#d59a79" d="M32 23.5a8.5 8.5 0 0 0-8.5 8.5 8.5 8.5 0 0 0 8.5 8.5 8.5 8.5 0 0 0 8.5-8.5 8.5 8.5 0 0 0-8.5-8.5Zm0 2.833A5.667 5.667 0 0 1 37.667 32 5.667 5.667 0 0 1 32 37.667 5.667 5.667 0 0 1 26.333 32 5.667 5.667 0 0 1 32 26.333Z" style="paint-order:normal" transform="matrix(.37836 0 0 .37836 -.675 -.107)"/><path fill="#666" d="M32 15a17 17 0 0 0-17 17 17 17 0 0 0 17 17h17.143L52 46H41.641a17 17 0 0 0 7.36-14 17 17 0 0 0-17-17zm0 9.916A7.083 7.083 0 0 1 39.084 32 7.083 7.083 0 0 1 32 39.084 7.083 7.083 0 0 1 24.916 32 7.083 7.083 0 0 1 32 24.916Z" style="paint-order:normal" transform="matrix(.37836 0 0 .37836 -.675 -.107)"/></svg>

<?xml version="1.0" encoding="UTF-8" standalone="no"?>
<svg
   width="24"
   height="24"
   viewBox="0 0 24 24"
   fill="none"
   version="1.1"
   id="svg154"
   sodipodi:docname="flatseal.svg"
   inkscape:version="1.2.2 (b0a8486541, 2022-12-01)"
   xmlns:inkscape="http://www.inkscape.org/namespaces/inkscape"
   xmlns:sodipodi="http://sodipodi.sourceforge.net/DTD/sodipodi-0.dtd"
   xmlns:xlink="http://www.w3.org/1999/xlink"
   xmlns="http://www.w3.org/2000/svg"
   xmlns:svg="http://www.w3.org/2000/svg"
   xmlns:sketch="http://www.bohemiancoding.com/sketch/ns">
  <sodipodi:namedview
     id="namedview156"
     pagecolor="#ffffff"
     bordercolor="#000000"
     borderopacity="1"
     inkscape:showpageshadow="0"
     inkscape:pageopacity="1"
     inkscape:pagecheckerboard="false"
     inkscape:deskcolor="#ffffff"
     showgrid="true"
     inkscape:zoom="32"
     inkscape:cx="3.375"
     inkscape:cy="7.828125"
     inkscape:window-width="1920"
     inkscape:window-height="1052"
     inkscape:window-x="0"
     inkscape:window-y="0"
     inkscape:window-maximized="1"
     inkscape:current-layer="svg154"
     showguides="true"
     guidecolor="#ff0000"
     guideopacity="1"
     inkscape:lockguides="true"
     showborder="true"
     borderlayer="true">
    <inkscape:grid
       type="xygrid"
       id="grid356"
       color="#000000"
       opacity="0.10196078"
       empcolor="#000000"
       empopacity="0.10196078"
       snapvisiblegridlinesonly="true"
       enabled="true"
       visible="true"
       dotted="false" />
    <sodipodi:guide
       position="4.003125,23.042969"
       orientation="1,0"
       id="guide764"
       inkscape:locked="true" />
    <sodipodi:guide
       position="5.0007813,21.049219"
       orientation="1,0"
       id="guide2218"
       inkscape:locked="true" />
    <sodipodi:guide
       position="3.6445312,20"
       orientation="0,-1"
       id="guide2220"
       inkscape:locked="true" />
    <sodipodi:guide
       position="3.796875,5"
       orientation="0,-1"
       id="guide2222"
       inkscape:locked="true" />
    <sodipodi:guide
       position="3.625,4"
       orientation="0,-1"
       id="guide2224"
       inkscape:locked="true" />
    <sodipodi:guide
       position="19,4.8984375"
       orientation="1,0"
       id="guide2226"
       inkscape:locked="true" />
    <sodipodi:guide
       position="20,3.3312502"
       orientation="1,0"
       id="guide2228"
       inkscape:locked="true" />
    <sodipodi:guide
       position="22.875,19"
       orientation="0,-1"
       id="guide2230"
       inkscape:locked="true" />
  </sodipodi:namedview>
  <defs
     id="defs152">
    <radialGradient
       id="radialGradient1281"
       cx="0"
       cy="0"
       r="1"
       gradientUnits="userSpaceOnUse"
       gradientTransform="translate(12 1) rotate(90) scale(22)">
      <stop
         stop-color="#8FC8FF"
         id="stop1277"
         offset="0"
         style="stop-color:#f0f0f0;stop-opacity:1;" />
      <stop
         offset="1"
         stop-color="#0056A8"
         id="stop1279"
         style="stop-color:#e5e5e5;stop-opacity:1;" />
    </radialGradient>
    <radialGradient
       id="paint0_radial_29_23"
       cx="0"
       cy="0"
       r="1"
       gradientUnits="userSpaceOnUse"
       gradientTransform="translate(12 1) rotate(90) scale(22)">
      <stop
         stop-color="#8FC8FF"
         id="stop147"
         offset="0"
         style="stop-color:#f6f6f6;stop-opacity:1;" />
      <stop
         offset="1"
         stop-color="#0056A8"
         id="stop149"
         style="stop-color:#cfcfcf;stop-opacity:1;" />
    </radialGradient>
    <radialGradient
       inkscape:collect="always"
       xlink:href="#radialGradient1281"
       id="radialGradient1161"
       gradientUnits="userSpaceOnUse"
       gradientTransform="matrix(3.9045581e-8,90.059469,-90.006811,0,-107.36954,-11.19048)"
       cx="0.17911513"
       cy="-1.7483425"
       r="1"
       fx="0.17911513"
       fy="-1.7483425" />
    <radialGradient
       id="paint0_radial_10_2"
       cx="0"
       cy="0"
       r="1"
       gradientUnits="userSpaceOnUse"
       gradientTransform="matrix(-10.999959,21.999967,-21.999967,-10.999959,17.5,1)"
       xlink:href="#paint0_radial_29_23">
      <stop
         stop-color="#777777"
         id="stop2847" />
      <stop
         offset="1"
         stop-color="#222222"
         id="stop2849" />
    </radialGradient>
  </defs>
  <path
     d="M 50,5 C 9.0909092,5 5,25.454546 5,50 5,82.727274 17.272728,95 50,95 82.727274,95 95,82.727274 95,50 95,25.454546 90.909093,5 50,5 Z"
     sketch:type="MSShapeGroup"
     id="path6"
     style="font-variation-settings:normal;display:inline;opacity:1;vector-effect:none;fill:url(#radialGradient1161);fill-opacity:1;stroke-width:4.56656;stroke-linecap:butt;stroke-linejoin:miter;stroke-miterlimit:4;stroke-dasharray:none;stroke-dashoffset:0;stroke-opacity:1;-inkscape-stroke:none;stop-color:#000000;stop-opacity:1"
     sodipodi:nodetypes="sssss"
     inkscape:label="Shape"
     transform="matrix(0.24444444,0,0,0.24444444,-0.22222222,-0.22222222)"
     sodipodi:insensitive="true" />
  <g
     inkscape:groupmode="layer"
     id="layer4"
     inkscape:label="Colors References"
     style="display:inline"
     sodipodi:insensitive="true"
     inkscape:highlight-color="#cc5ecc">
    <rect
       style="display:inline;fill:#3947be;fill-opacity:1;stroke-width:22.6872;paint-order:markers stroke fill"
       id="rect7816"
       width="1.9999923"
       height="2"
       x="12"
       y="-2.9999964"
       rx="0"
       ry="0"
       inkscape:label="Dark Blue" />
    <rect
       style="display:inline;fill:#6c7ad8;fill-opacity:1;stroke-width:22.6873;paint-order:markers stroke fill"
       id="rect7820"
       width="2"
       height="2.0000076"
       x="9"
       y="-3.0000041"
       rx="0"
       ry="0"
       inkscape:label="Blue" />
    <rect
       style="display:inline;fill:#33cc33;fill-opacity:1;stroke-width:22.6873;paint-order:markers stroke fill"
       id="rect7814"
       width="2"
       height="2.0000076"
       x="6"
       y="-3.0000041"
       rx="0"
       ry="0"
       inkscape:label="Green" />
    <rect
       style="display:inline;fill:#ffc328;fill-opacity:1;stroke-width:22.6872;paint-order:markers stroke fill"
       id="rect7824"
       width="1.9999926"
       height="2.0000002"
       x="3"
       y="-2.9999964"
       rx="0"
       ry="0"
       inkscape:label="Yellow" />
    <rect
       style="display:inline;fill:#cc5e55;fill-opacity:1;stroke-width:22.6873;paint-order:markers stroke fill"
       id="rect7822"
       width="2"
       height="2.0000076"
       x="0"
       y="-3.0000038"
       rx="0"
       ry="0"
       inkscape:label="Red" />
    <rect
       style="display:inline;fill:#0bb1cb;fill-opacity:1;stroke-width:22.6872;paint-order:markers stroke fill"
       id="rect3087"
       width="1.9999919"
       height="1.9999996"
       x="-3"
       y="12.000004"
       rx="0"
       ry="0"
       inkscape:label="Blue 4" />
    <rect
       style="display:inline;fill:#2a92c9;fill-opacity:1;stroke-width:22.6873;paint-order:markers stroke fill"
       id="rect3085"
       width="2"
       height="2.0000079"
       x="-3"
       y="8.9999962"
       rx="0"
       ry="0"
       inkscape:label="Blue 3" />
    <rect
       style="display:inline;fill:#006699;fill-opacity:1;stroke-width:22.6873;paint-order:markers stroke fill"
       id="rect3089"
       width="2"
       height="2.0000076"
       x="-3"
       y="6.0000038"
       rx="0"
       ry="0"
       inkscape:label="Blue 2" />
    <rect
       style="display:inline;fill:#002a44;fill-opacity:1;stroke-width:22.6873;paint-order:markers stroke fill"
       id="rect3083"
       width="2"
       height="2.0000076"
       x="-3"
       y="2.9999962"
       rx="0"
       ry="0"
       inkscape:label="Blue 1" />
    <rect
       style="display:inline;fill:#2c2d3d;fill-opacity:1;stroke-width:22.6873;paint-order:markers stroke fill"
       id="rect3456"
       width="2"
       height="2.0000076"
       x="-3"
       y="-3.8146973e-06"
       rx="0"
       ry="0"
       inkscape:label="Gray" />
    <rect
       style="display:inline;fill:#16171c;fill-opacity:1;stroke-width:22.6872;paint-order:markers stroke fill"
       id="rect3091"
       width="1.9999924"
       height="2"
       x="-3"
       y="-3"
       rx="0"
       ry="0"
       inkscape:label="Black" />
  </g>
  <g
     id="g16672"
     transform="matrix(0.37835726,0,0,0.37835726,-0.67496821,-0.10743232)">
    <path
       d="M 32,23.5 A 8.5,8.5 0 0 0 23.5,32 8.5,8.5 0 0 0 32,40.5 8.5,8.5 0 0 0 40.5,32 8.5,8.5 0 0 0 32,23.5 Z m 0,2.833 A 5.667,5.667 0 0 1 37.667,32 5.667,5.667 0 0 1 32,37.667 5.667,5.667 0 0 1 26.333,32 5.667,5.667 0 0 1 32,26.333 Z"
       fill="#d59a79"
       style="paint-order:normal"
       id="path16543" />
    <path
       d="M 32,15 A 17,17 0 0 0 15,32 17,17 0 0 0 32,49 H 49.143 L 52,46 H 41.641 a 17,17 0 0 0 7.36,-14 17,17 0 0 0 -17,-17 z m 0,9.916 A 7.083,7.083 0 0 1 39.084,32 7.083,7.083 0 0 1 32,39.084 7.083,7.083 0 0 1 24.916,32 7.083,7.083 0 0 1 32,24.916 Z"
       fill="#666666"
       style="paint-order:normal"
       id="path16545" />
  </g>
</svg>
